svgs/sky_children_of_the_light.svg

<svg xmlns="http://www.w3.org/2000/svg" width="192" height="192" fill="none" viewBox="0 0 192 192"><path stroke="#000" stroke-width="12" d="M36.302 169.486c-.712-.185-1.302-.742-1.302-1.783 0-1.031.57-1.433 5.391-1.443 9.868 0 26.449-5.257 33.875-10.74 10.7-7.886 12.878-15.431 6.713-23.223-2.573-3.247-5.88-6.143-17.415-15.224-4.425-3.484-10.172-8.453-12.787-11.029-20.141-19.894-9.46-51.074 24.414-71.318a101.2 101.2 0 0 1 25.502-10.895c9.329-2.422 22.024-2.443 30.416-.052 14.516 4.154 25.258 13.627 26.753 23.605.936 6.328-2.583 9.74-20.507 19.852-23.397 13.193-32.338 19.399-36.855 25.542-2.197 2.979-2.746 4.453-3.01 7.988-.367 5.071.487 6.844 7.242 15.111 7.06 8.648 8.718 13.08 7.161 19.12-2.441 9.411-13.122 18.111-31.605 25.707-16.571 6.803-36.407 10.772-43.986 8.782z"/></svg>

<svg xmlns="http://www.w3.org/2000/svg" width="192" height="192" viewBox="0 0 192 192"><path d="M36.302,169.486C35.59,169.301 35,168.744 35,167.703C35,166.672 35.57,166.27 40.391,166.26C50.259,166.26 66.84,161.003 74.266,155.52C84.967,147.634 87.144,140.089 80.979,132.297C78.406,129.05 75.1,126.154 63.564,117.073C59.139,113.589 53.392,108.62 50.777,106.044C30.636,86.15 41.317,54.97 75.191,34.726C83.163,29.936 91.743,26.271 100.693,23.831C110.022,21.409 122.717,21.388 131.109,23.779C145.625,27.933 156.367,37.406 157.862,47.384C158.798,53.712 155.279,57.124 137.355,67.236C113.958,80.429 105.017,86.635 100.5,92.778C98.303,95.757 97.754,97.231 97.489,100.766C97.123,105.837 97.977,107.61 104.732,115.877C111.792,124.525 113.45,128.957 111.893,134.997C109.452,144.408 98.771,153.108 80.288,160.704C63.717,167.507 43.881,171.476 36.302,169.486Z" fill-rule="nonZero" stroke-width="12" fill-opacity="0" fill="#000000" stroke="#000000"/></svg>
